X: 1
T: Willy MacKenzie's
R: reel
M: 4/4
L: 1/8
K: Amix
e2ecA2ce|g2fe dGBd|e2ce aece|g2dBA2AB:|
|:Aaga ecAc|Bdge dBGB|Aaga ecAc|g2dBA2AB:|

